src/actions/16/office-chart-area-stacked.svg

<svg xmlns="http://www.w3.org/2000/svg" viewBox="0 0 16 16">
  <defs id="defs3051">
    <style type="text/css" id="current-color-scheme">
      .ColorScheme-Text {
        color:#363636;
      }
      </style>
  </defs>
 <path 
     style="fill:currentColor;fill-opacity:1;stroke:none" 
     d="M 2 2 L 2 4.9960938 L 1.0078125 4.9960938 L 1.0078125 5.0058594 L 2 5.0058594 L 2 14 L 14 14 L 14 13 L 3 13 L 3 5.0058594 L 7.46875 5.0058594 L 4.46875 8.0058594 L 3.0078125 8.0058594 L 3.0078125 9.0058594 L 4.8828125 9.0058594 L 9.0058594 4.8828125 L 11.128906 7.0058594 L 11.134766 7.0019531 L 11.138672 7.0058594 L 13.966797 4.1777344 C 13.969797 4.1827344 13.259766 3.4707031 13.259766 3.4707031 L 11.134766 5.5957031 L 9.0078125 3.4707031 L 9.0058594 3.4726562 L 9.0039062 3.4707031 L 7.4765625 4.9960938 L 3 4.9960938 L 3 2 L 2 2 z M 7.5996094 9 L 5.5996094 11 L 3.0058594 11 L 3.0058594 12 L 6.0058594 12 L 6.0058594 11.992188 L 6.0136719 12 L 8.0136719 10 L 9.6054688 10 L 11.605469 12 L 14.005859 12 L 14.005859 11 L 12.019531 11 L 10.019531 9 L 8.6054688 9 L 7.5996094 9 z "
     class="ColorScheme-Text"/>
 <path 
     style="fill:currentColor;fill-opacity:0.5;stroke:none" 
     d="M 13.46,3.67 11.14,6.001 11.136,5.997 11.13,6.001 9.007,3.878 4.884,8.001 l -1.875,0 0,5 11,0 0,-8.778 z"
     class="ColorScheme-Text"/>
</svg>

<svg xmlns="http://www.w3.org/2000/svg" viewBox="0 0 16 16">
    <defs id="defs3051">
        <style id="current-color-scheme" type="text/css">
            .ColorScheme-Text{color:#050505;opacity:.7}
        </style>
    </defs>
    <path d="M2 2v2.996h-.992v.01H2V14h12v-1H3V5.006h4.469l-3 3H3.008v1h1.875l4.123-4.123 2.123 2.123.006-.004.004.004 2.828-2.828c.003.005-.707-.707-.707-.707l-2.125 2.125L9.008 3.47l-.002.002-.002-.002-1.527 1.525H3V2H2zm5.6 7-2 2H3.006v1h3v-.008l.008.008 2-2h1.591l2 2h2.4v-1H12.02l-2-2H7.6z" class="ColorScheme-Text" style="fill:currentColor;fill-opacity:1;stroke:none"/>
    <path d="m13.46 3.67-2.32 2.331-.004-.004-.006.004-2.123-2.123-4.123 4.123H3.009v5h11V4.223z" class="ColorScheme-Text" style="fill:currentColor;fill-opacity:.5;stroke:none"/>
</svg>
